X:1
T:Jennie's Got a Man
M:C
L:1/8
R:Reel
S:Harding's All Round Collection (1905), No. 36.
Z:AK/Fiddler's Companion
K:G
d2e2d3c|BGAB c4|d2e2d3c|BGAF G4:|
|:G2 ga g2g2g|fgaf g2g2|G2 ga g2g2|ecAF G4:|

